src/assets/duotone/MoreCircle.svg

<?xml version="1.0" encoding="UTF-8"?>
<svg width="24" height="24" viewBox="0 0 24 24" xmlns="http://www.w3.org/2000/svg">
 <path d="m12 22c5.5228 0 10-4.4772 10-10 0-5.5228-4.4772-10-10-10-5.5228 0-10 4.4772-10 10 0 5.5228 4.4772 10 10 10z" opacity=".4"/>
 <path d="m12 13c-0.56 0-1-0.45-1-1s0.45-1 1-1 1 0.45 1 1-0.44 1-1 1z"/>
 <path d="m16 13c-0.56 0-1-0.45-1-1s0.45-1 1-1 1 0.45 1 1-0.44 1-1 1z"/>
 <path d="m8 13c-0.56 0-1-0.45-1-1s0.45-1 1-1 1 0.45 1 1-0.44 1-1 1z"/>
</svg>

<svg width="24" height="24" viewBox="0 0 24 24"  xmlns="http://www.w3.org/2000/svg">
<path opacity="0.4" d="M12 22C17.5228 22 22 17.5228 22 12C22 6.47715 17.5228 2 12 2C6.47715 2 2 6.47715 2 12C2 17.5228 6.47715 22 12 22Z" />
<path d="M12 13C11.44 13 11 12.55 11 12C11 11.45 11.45 11 12 11C12.55 11 13 11.45 13 12C13 12.55 12.56 13 12 13Z" />
<path d="M16 13C15.44 13 15 12.55 15 12C15 11.45 15.45 11 16 11C16.55 11 17 11.45 17 12C17 12.55 16.56 13 16 13Z" />
<path d="M8 13C7.44 13 7 12.55 7 12C7 11.45 7.45 11 8 11C8.55 11 9 11.45 9 12C9 12.55 8.56 13 8 13Z" />
</svg>
